X:20
T: MEIN SCHAETZLE IST FEIN
N: E1017
O: Europa, Mitteleuropa, Deutschland, Schwaben
R: Tanz - Lied; Liebe
M: 3/4
L: 1/8
K: C
cA | G2G2FD | C2G,2
E2 | D2DCD2 | G4
cA | G2G2FD | C2G,2
E2 | G2FEFD | C4
cA | G2G2FD | C2G,2
E2 | D2DCD2 | G4
cA | G2G2FD | C2G,2
E2 | G2FEFD | C4
B,C | D2D2CD | E2E2
DE | F2FEFE | G4
cA | G2G2FD | C2G,2
E2 | G2FEFD | C4
B,C | D2D2CD | E2E2
DE | F2FEFE | G4
cA | G2G2FD | C2G,2
E2 | G2FEFD | C4

@@@ Tune index: 4704
